X: 235
T:Pater noster / Ave Maria
N: Derived from Jos2009-Pater_noster.krn
C: Josquin des Prez
%%abc-version 2.0
%%abcx-abcm2ps-target-version 5.9.1 (29 Sep 2008)
%%abc-creator hum2abc beta
%%abcx-conversion-date 2019/02/12 16:15:50
%%abc-edited-by Jesse Rodin
%%abc-edited-by Will Watson 2011/05/15; JR 2013/03/08 (text)
%%abcx-initial-encoding-date 2013/03/08/
%%humdrum-veritas 30133283
%%humdrum-veritas-data 1374259576
%%linebreak <none>
%%barnumbers 0
L: 1/4
M: 2/1
Q: 1/2=120
V: 1 clef=treble
V: 2 clef=treble-8
V: 3 clef=treble-8
V: 4 clef=treble-8
V: 5 clef=treble-8
V: 6 clef=bass
K: F
[V:1] G8 | 
[V:2] g8 | 
[V:3] z8 | 
[V:4] z8 | 
[V:5] z8 | 
[V:6] z8 | 
[V:1] G4B4- | 
[V:2] g4g4- | 
[V:3] G8 | 
[V:4] z8 | 
[V:5] z8 | 
[V:6] z8 | 
[V:1] B4A4 | 
[V:2] g4f4 | 
[V:3] G4d4- | 
[V:4] z8 | 
[V:5] z8 | 
[V:6] z8 | 
[V:1] z8 | 
[V:2] z4g4 | 
[V:3] d4d4 | 
[V:4] z8 | 
[V:5] G8 | 
[V:6] z8 | 
[V:1] z8 | 
[V:2] g4g4- | 
[V:3] z8 | 
[V:4] z8 | 
[V:5] G4B4- | 
[V:6] G,,8 | 
[V:1] z8 | 
[V:2] g4f4 | 
[V:3] z8 | 
[V:4] z8 | 
[V:5] B4A4 | 
[V:6] G,,4D,4- | 
[V:1] d8 | 
[V:2] z8 | 
[V:3] z8 | 
[V:4] d8 | 
[V:5] z8 | 
[V:6] D,4D,4 | 
[V:1] d4d4- | 
[V:2] z8 | 
[V:3] D8 | 
[V:4] d4f4- | 
[V:5] z8 | 
[V:6] z8 | 
[V:1] d4c4 | 
[V:2] z8 | 
[V:3] D4A4- | 
[V:4] f4e4 | 
[V:5] z8 | 
[V:6] z8 | 
[V:1] z8 | 
[V:2] z4F4 | 
[V:3] A4A4 | 
[V:4] z8 | 
[V:5] A8 | 
[V:6] D,8 | 
[V:1] z8 | 
[V:2] F4F4- | 
[V:3] z8 | 
[V:4] z8 | 
[V:5] A4B4- | 
[V:6] D,4D,4- | 
[V:1] z8 | 
[V:2] F4E4 | 
[V:3] z8 | 
[V:4] z8 | 
[V:5] B4A4 | 
[V:6] D,4A,,4 | 
[V:1] z4c4 | 
[V:2] z8 | 
[V:3] z8 | 
[V:4] e8 | 
[V:5] A2G2A4 | 
[V:6] C,4C,4 | 
[V:1] c2c2A4- | 
[V:2] E4D2D2 | 
[V:3] z4A4 | 
[V:4] e4f4- | 
[V:5] G4F4 | 
[V:6] C,4D,4- | 
[V:1] A2B2c4 | 
[V:2] d4c4 | 
[V:3] F2D2A4 | 
[V:4] f4e4 | 
[V:5] z8 | 
[V:6] D,4A,,4 | 
[V:1] z8 | 
[V:2] z2B2c2C2 | 
[V:3] G4z2G2 | 
[V:4] e2d2e4 | 
[V:5] z8 | 
[V:6] C,2G,,2C,4 | 
[V:1] z8 | 
[V:2] D4E4 | 
[V:3] G2G2A4 | 
[V:4] d4c4 | 
[V:5] z8 | 
[V:6] B,,4A,,4 | 
[V:1] z4G4 | 
[V:2] z8 | 
[V:3] G2d2e2g2- | 
[V:4] z8 | 
[V:5] z8 | 
[V:6] z8 | 
[V:1] G2G2A4 | 
[V:2] z8 | 
[V:3] g2fef4 | 
[V:4] z8 | 
[V:5] z8 | 
[V:6] z8 | 
[V:1] G2F2G2B2- | 
[V:2] z4z2G2 | 
[V:3] g2d2e2g2- | 
[V:4] z8 | 
[V:5] z8 | 
[V:6] z8 | 
[V:1] B2AGA4 | 
[V:2] G2G2d4 | 
[V:3] g2fef4 | 
[V:4] z8 | 
[V:5] z8 | 
[V:6] z8 | 
[V:1] G8 | 
[V:2] G2d2e2g2- | 
[V:3] g8 | 
[V:4] z8 | 
[V:5] z4G4 | 
[V:6] G,6G,2 | 
[V:1] z8 | 
[V:2] g2fef4 | 
[V:3] z8 | 
[V:4] z8 | 
[V:5] G2G2A4 | 
[V:6] G,,4D,4 | 
[V:1] z4G4 | 
[V:2] z8 | 
[V:3] z4z2G2 | 
[V:4] z8 | 
[V:5] G2F2G2B2- | 
[V:6] G,,2D,2E,2G,2- | 
[V:1] G2G2F4 | 
[V:2] z8 | 
[V:3] B2c2d4 | 
[V:4] z4d4 | 
[V:5] B2AGA4 | 
[V:6] G,2F,E,D,4 | 
[V:1] G4G2G2 | 
[V:2] z2B2c2B2 | 
[V:3] B4z4 | 
[V:4] d2d2e4 | 
[V:5] G8 | 
[V:6] G,,2G,2C,2G,2- | 
[V:1] G4F4 | 
[V:2] G4A4 | 
[V:3] z4z2F2 | 
[V:4] d2c2d2f2- | 
[V:5] z8 | 
[V:6] G,F,E,2D,4 | 
[V:1] z4G4 | 
[V:2] z8 | 
[V:3] A2B2c4 | 
[V:4] f2ede4 | 
[V:5] z8 | 
[V:6] z4C,4 | 
[V:1] B6B2 | 
[V:2] G4d4- | 
[V:3] B8 | 
[V:4] d8 | 
[V:5] z8 | 
[V:6] G,6G,2 | 
[V:1] A2G2A2B2- | 
[V:2] d2d2d4 | 
[V:3] z8 | 
[V:4] z8 | 
[V:5] z8 | 
[V:6] F,2G,2F,2G,2- | 
[V:1] BAGFG4 | 
[V:2] d2d2c4 | 
[V:3] z8 | 
[V:4] z8 | 
[V:5] z8 | 
[V:6] G,F,E,D,E,4 | 
[V:1] F8 | 
[V:2] d8 | 
[V:3] z8 | 
[V:4] z8 | 
[V:5] z4A4 | 
[V:6] D,8 | 
[V:1] z8 | 
[V:2] z8 | 
[V:3] G4d4- | 
[V:4] z8 | 
[V:5] B6B2 | 
[V:6] z2G,2G,3G, | 
[V:1] z8 | 
[V:2] z8 | 
[V:3] d2d2d4 | 
[V:4] z8 | 
[V:5] A2G2A2B2- | 
[V:6] F,2G,2F,2G,2- | 
[V:1] z8 | 
[V:2] z8 | 
[V:3] d2d2c4 | 
[V:4] z4e4 | 
[V:5] BAGFG4 | 
[V:6] G,F,E,D,E,4 | 
[V:1] z8 | 
[V:2] D4A4- | 
[V:3] d4z2D2 | 
[V:4] f6f2 | 
[V:5] F8 | 
[V:6] D,2D,2D,3D, | 
[V:1] z8 | 
[V:2] A2A2A4 | 
[V:3] E2F2E2D2 | 
[V:4] e2d2e2f2- | 
[V:5] z8 | 
[V:6] C,2D,2C,2D,2- | 
[V:1] z8 | 
[V:2] A2A2G4 | 
[V:3] F4D4 | 
[V:4] fedcd4 | 
[V:5] z8 | 
[V:6] D,C,B,,A,,B,,4 | 
[V:1] z4A4 | 
[V:2] A8 | 
[V:3] E8 | 
[V:4] c8 | 
[V:5] z8 | 
[V:6] A,,8 | 
[V:1] G2G2B4 | 
[V:2] z4z2d2 | 
[V:3] z2G2G2G2 | 
[V:4] z8 | 
[V:5] z8 | 
[V:6] z8 | 
[V:1] A4G4- | 
[V:2] d2d2B2c2- | 
[V:3] F2D2_E4- | 
[V:4] z8 | 
[V:5] z8 | 
[V:6] z8 | 
[V:1] G4F4 | 
[V:2] cBG2A4 | 
[V:3] E4D4 | 
[V:4] z8 | 
[V:5] z8 | 
[V:6] z8 | 
[V:1] z4B4 | 
[V:2] G8 | 
[V:3] d4d4 | 
[V:4] z8 | 
[V:5] z4G4 | 
[V:6] z8 | 
[V:1] B8 | 
[V:2] d4d4 | 
[V:3] z4z2d2 | 
[V:4] z8 | 
[V:5] G2G2B4 | 
[V:6] z2G,2G,2G,2 | 
[V:1] z8 | 
[V:2] z8 | 
[V:3] d2d2B2c2- | 
[V:4] z8 | 
[V:5] A4G3F | 
[V:6] F,2D,2_E,4- | 
[V:1] z8 | 
[V:2] c4d4 | 
[V:3] cBG2A4 | 
[V:4] z4d4 | 
[V:5] G4F4 | 
[V:6] E,4D,4 | 
[V:1] A4A4 | 
[V:2] z4z2A2 | 
[V:3] D8 | 
[V:4] d2d2f4 | 
[V:5] z8 | 
[V:6] z2D,2D,2D,2 | 
[V:1] z2c2d2d2 | 
[V:2] A2A2F2G2- | 
[V:3] z8 | 
[V:4] e4d3c | 
[V:5] z8 | 
[V:6] C,2A,,2B,,4- | 
[V:1] d2B2c4 | 
[V:2] GFD2E4 | 
[V:3] z8 | 
[V:4] d4c4 | 
[V:5] z8 | 
[V:6] B,,4A,,4 | 
[V:1] B4z4 | 
[V:2] D2D2D2D2 | 
[V:3] G4G2G2 | 
[V:4] z8 | 
[V:5] z8 | 
[V:6] B,,4B,,2B,,2 | 
[V:1] z8 | 
[V:2] E4D2B2 | 
[V:3] A4G4 | 
[V:4] z8 | 
[V:5] z8 | 
[V:6] C,4G,,4 | 
[V:1] z8 | 
[V:2] A2G3^F^FE | 
[V:3] F2G2A4 | 
[V:4] z8 | 
[V:5] z8 | 
[V:6] D,2_E,2D,4 | 
[V:1] z2B2B2B2 | 
[V:2] G4z4 | 
[V:3] G4z4 | 
[V:4] z8 | 
[V:5] G4G2G2 | 
[V:6] G,,8 | 
[V:1] c4B2G2 | 
[V:2] z8 | 
[V:3] z8 | 
[V:4] z8 | 
[V:5] A4G4 | 
[V:6] z8 | 
[V:1] A2G3^FFE | 
[V:2] z4D4 | 
[V:3] z8 | 
[V:4] z8 | 
[V:5] F2G2A4 | 
[V:6] z8 | 
[V:1] G8 | 
[V:2] D2D2G4 | 
[V:3] B4B2B2 | 
[V:4] d4d2d2 | 
[V:5] G8- | 
[V:6] G,,4G,,2G,,2 | 
[V:1] z8 | 
[V:2] E4z2G2- | 
[V:3] c4B4 | 
[V:4] e4d4 | 
[V:5] G8- | 
[V:6] C,4G,,4 | 
[V:1] z8 | 
[V:2] G2G2E3F | 
[V:3] _e2d2c4 | 
[V:4] c2d2e4 | 
[V:5] G8 | 
[V:6] C,2B,,2C,4 | 
[V:1] z4G4 | 
[V:2] G8 | 
[V:3] B4z4 | 
[V:4] d8- | 
[V:5] z8 | 
[V:6] G,,8 | 
[V:1] G4B4- | 
[V:2] z8 | 
[V:3] G4G4 | 
[V:4] d8- | 
[V:5] z8 | 
[V:6] z2G,4G,2 | 
[V:1] B4A4 | 
[V:2] z8 | 
[V:3] B3cd4 | 
[V:4] d8 | 
[V:5] z8 | 
[V:6] G,4D,4 | 
[V:1] z2d2d2d2- | 
[V:2] G4G4 | 
[V:3] z2B2B2B2- | 
[V:4] z8 | 
[V:5] z4G4 | 
[V:6] z8 | 
[V:1] dcB4AG | 
[V:2] B3cd4 | 
[V:3] BAG4FE | 
[V:4] z8 | 
[V:5] G4B4- | 
[V:6] G,,4G,,4 | 
[V:1] F8 | 
[V:2] z8 | 
[V:3] D8 | 
[V:4] z8 | 
[V:5] B4A4 | 
[V:6] B,,3C,D,4 | 
[V:1] z2B2B2B2 | 
[V:2] z8 | 
[V:3] z8 | 
[V:4] z4d4 | 
[V:5] B4B2B2 | 
[V:6] z2G,,2G,,2G,,2 | 
[V:1] B4A4 | 
[V:2] z2D2D2D2 | 
[V:3] z2d2d2d2 | 
[V:4] d4f4- | 
[V:5] G4F4 | 
[V:6] B,,3C,D,4 | 
[V:1] z8 | 
[V:2] F3GA4 | 
[V:3] d4c4 | 
[V:4] f4e4 | 
[V:5] z8 | 
[V:6] z8 | 
[V:1] z2A2A2A2 | 
[V:2] z2D2F2D2 | 
[V:3] z8 | 
[V:4] f4f2f2 | 
[V:5] z8 | 
[V:6] D,4D,2D,2 | 
[V:1] F4E4 | 
[V:2] F3GA4 | 
[V:3] z8 | 
[V:4] d4c4 | 
[V:5] z8 | 
[V:6] D,4A,,4 | 
[V:1] z8 | 
[V:2] z4z2C2 | 
[V:3] B4c4 | 
[V:4] z8 | 
[V:5] G4F4 | 
[V:6] z2G,,2A,,4 | 
[V:1] z8 | 
[V:2] D2D2E4- | 
[V:3] B4c4- | 
[V:4] z8 | 
[V:5] G4A4- | 
[V:6] G,,4C,4- | 
[V:1] z8 | 
[V:2] E2D2D4 | 
[V:3] c2B2B4 | 
[V:4] z8 | 
[V:5] A2G2G4 | 
[V:6] C,2G,,2G,,4 | 
[V:1] z2F2G4 | 
[V:2] D4E4 | 
[V:3] z4z2G2 | 
[V:4] d4c4 | 
[V:5] z8 | 
[V:6] z8 | 
[V:1] F4G4- | 
[V:2] D4G4- | 
[V:3] A2A2B4- | 
[V:4] d4e4- | 
[V:5] z8 | 
[V:6] z8 | 
[V:1] G2F2F4 | 
[V:2] G2D2D4 | 
[V:3] B2A2A4 | 
[V:4] e2d2d4 | 
[V:5] z8 | 
[V:6] z8 | 
[V:1] z8 | 
[V:2] z2D2D2D2 | 
[V:3] z2d2d2d2 | 
[V:4] z8 | 
[V:5] G4G2G2 | 
[V:6] z2G,,2B,,2B,,2 | 
[V:1] z8 | 
[V:2] E4G4- | 
[V:3] c4d4- | 
[V:4] z8 | 
[V:5] A4B4- | 
[V:6] A,,4G,,4- | 
[V:1] z4z2d2 | 
[V:2] G4F4 | 
[V:3] d4d4 | 
[V:4] z8 | 
[V:5] B4A4 | 
[V:6] G,,4D,4 | 
[V:1] d2d2d4 | 
[V:2] z2F2F2G2 | 
[V:3] z8 | 
[V:4] d4d2d2 | 
[V:5] z2B2B2B2 | 
[V:6] B,,4B,,2B,,2 | 
[V:1] c4A2d2 | 
[V:2] E4D2D2 | 
[V:3] z4z2B2 | 
[V:4] e4f4- | 
[V:5] G4F4 | 
[V:6] C,4D,2B,,2 | 
[V:1] d2d2c4 | 
[V:2] F2D2E4 | 
[V:3] B2B2G4 | 
[V:4] f4e4 | 
[V:5] z8 | 
[V:6] B,,2B,,2C,4 | 
[V:1] A3GA2B2- | 
[V:2] D8 | 
[V:3] F4z2B2 | 
[V:4] z2f2f2f2 | 
[V:5] z8 | 
[V:6] D,4z2B,,2 | 
[V:1] BAGFEFGE | 
[V:2] z8 | 
[V:3] B2B2G4 | 
[V:4] d4c4 | 
[V:5] z8 | 
[V:6] B,,2B,,2C,4 | 
[V:1] F8 | 
[V:2] z8 | 
[V:3] F8 | 
[V:4] z8 | 
[V:5] z4F4 | 
[V:6] D,8 | 
[V:1] z8 | 
[V:2] D4D4 | 
[V:3] z8 | 
[V:4] z8 | 
[V:5] F4G4 | 
[V:6] B,,4B,,4 | 
[V:1] z4A4 | 
[V:2] E4D4 | 
[V:3] z4d4 | 
[V:4] z8 | 
[V:5] A4F4 | 
[V:6] C,4D,4 | 
[V:1] B4c4- | 
[V:2] z8 | 
[V:3] d4e4- | 
[V:4] z4c4 | 
[V:5] G6G2 | 
[V:6] G,,4C,4- | 
[V:1] c4B4 | 
[V:2] z4G4 | 
[V:3] e4d4 | 
[V:4] c4d4 | 
[V:5] G8 | 
[V:6] C,2C,2G,,4 | 
[V:1] z8 | 
[V:2] G4A4 | 
[V:3] z8 | 
[V:4] e4c4 | 
[V:5] z8 | 
[V:6] z8 | 
[V:1] A4B4- | 
[V:2] F2D2G4- | 
[V:3] z8 | 
[V:4] d6d2 | 
[V:5] z8 | 
[V:6] z8 | 
[V:1] B2B2B4 | 
[V:2] G2G2G4 | 
[V:3] B4B4- | 
[V:4] d8 | 
[V:5] z8 | 
[V:6] z4G,,4- | 
[V:1] z8 | 
[V:2] z2G2G2G2 | 
[V:3] B2B2B4 | 
[V:4] z8 | 
[V:5] G6G2 | 
[V:6] G,,2G,,2_E,4 | 
[V:1] z8 | 
[V:2] F2E3DD2- | 
[V:3] z8 | 
[V:4] z8 | 
[V:5] A4G4 | 
[V:6] D,2C,3B,,G,,2 | 
[V:1] z4z2d2- | 
[V:2] D2C2D4 | 
[V:3] z4B4- | 
[V:4] z8 | 
[V:5] F4G4- | 
[V:6] A,,4G,,4 | 
[V:1] d2d2d2d2 | 
[V:2] z8 | 
[V:3] B2B2B2B2 | 
[V:4] d6d2 | 
[V:5] G4G4 | 
[V:6] z8 | 
[V:1] c2B3AF2 | 
[V:2] z8 | 
[V:3] A2G3FD2 | 
[V:4] e4d4 | 
[V:5] z8 | 
[V:6] z8 | 
[V:1] G4F4 | 
[V:2] z2G2A2A2 | 
[V:3] E4D4 | 
[V:4] c4d4- | 
[V:5] z8 | 
[V:6] z8 | 
[V:1] G4D4 | 
[V:2] B2G2B4 | 
[V:3] z4d4- | 
[V:4] d4d4 | 
[V:5] G8 | 
[V:6] z8 | 
[V:1] F3GA2D2 | 
[V:2] A8 | 
[V:3] d4A4 | 
[V:4] z8 | 
[V:5] D4F4 | 
[V:6] D,4D,4 | 
[V:1] E2G4^FE | 
[V:2] z8 | 
[V:3] c2c2d4 | 
[V:4] z8 | 
[V:5] G4A4- | 
[V:6] C,2E,2D,4- | 
[V:1] ^F4G4 | 
[V:2] z4z2d2 | 
[V:3] D4G4 | 
[V:4] d8 | 
[V:5] A4G4 | 
[V:6] D,4G,,4 | 
[V:1] z4G4 | 
[V:2] f2f2e4 | 
[V:3] F4G4- | 
[V:4] A4c4 | 
[V:5] z4G4 | 
[V:6] D,4C,4 | 
[V:1] G4G4- | 
[V:2] d4c4 | 
[V:3] G2G2E3F | 
[V:4] d4e4- | 
[V:5] G4G4- | 
[V:6] B,,2G,,2C,4- | 
[V:1] G2G2B4 | 
[V:2] z2c2B2d2- | 
[V:3] G4z4 | 
[V:4] e4d4 | 
[V:5] G2G2G4 | 
[V:6] C,4G,,4 | 
[V:1] A4d4- | 
[V:2] d2d2d4 | 
[V:3] A2A2A2A2 | 
[V:4] z4d4 | 
[V:5] F8 | 
[V:6] D,4D,4 | 
[V:1] d2d2d2d2 | 
[V:2] A4B2B2 | 
[V:3] F3DD4 | 
[V:4] d4d4- | 
[V:5] z4F4 | 
[V:6] D,2D,2B,,4 | 
[V:1] B3GG4 | 
[V:2] B2B2B3G | 
[V:3] D4G4- | 
[V:4] d2d2d4 | 
[V:5] G6G2 | 
[V:6] G,,4G,,4 | 
[V:1] z4G4 | 
[V:2] G2G2c4- | 
[V:3] G2G2E4 | 
[V:4] c8 | 
[V:5] G4G4 | 
[V:6] C,6C,2 | 
[V:1] c6c2 | 
[V:2] c2c2A4 | 
[V:3] E4F4 | 
[V:4] z4c4 | 
[V:5] A8 | 
[V:6] A,,4A,,4 | 
[V:1] A4A4 | 
[V:2] A4d4 | 
[V:3] F4D4 | 
[V:4] d6d2 | 
[V:5] F8 | 
[V:6] D,4D,4 | 
[V:1] B4B4 | 
[V:2] B4G4 | 
[V:3] D4G4- | 
[V:4] d4d4 | 
[V:5] G4G4 | 
[V:6] G,,4G,,4 | 
[V:1] G4G4 | 
[V:2] G4c4- | 
[V:3] G2G2E4 | 
[V:4] e8 | 
[V:5] G3GG2G2 | 
[V:6] C,6C,2 | 
[V:1] c6c2 | 
[V:2] c2c2A4 | 
[V:3] E4F4 | 
[V:4] c8 | 
[V:5] A8 | 
[V:6] A,,4A,,4 | 
[V:1] A4A4 | 
[V:2] A4d4 | 
[V:3] F4D4 | 
[V:4] d4d4 | 
[V:5] F8 | 
[V:6] D,4D,4 | 
[V:1] B4B4 | 
[V:2] B4G4 | 
[V:3] D4G4- | 
[V:4] d3dd2d2 | 
[V:5] G8- | 
[V:6] G,,4G,,4 | 
[V:1] G4z2G2 | 
[V:2] G4c4- | 
[V:3] G2G2E2C2 | 
[V:4] e8 | 
[V:5] G8- | 
[V:6] C,3C,C,2C,2 | 
[V:1] c3cc2G2 | 
[V:2] c2c2c4 | 
[V:3] E4E4 | 
[V:4] c8 | 
[V:5] G8- | 
[V:6] C,4C,4 | 
[V:1] B4B3G | 
[V:2] B4B4 | 
[V:3] D8- | 
[V:4] d8- | 
[V:5] G8- | 
[V:6] G,,8- | 
[V:1] G8- | 
[V:2] B6G2 | 
[V:3] D8- | 
[V:4] d8- | 
[V:5] G8- | 
[V:6] G,,8- | 
[V:1] G8 ||  
[V:2] G8 ||  
[V:3] D8 ||  
[V:4] d8 ||  
[V:5] G8 ||  
[V:6] G,,8 ||  
[V:1]  [K:F] [K:clef=treble][M:2/1]z8 | 
[V:2]  [K:F] [K:clef=treble-8][M:2/1]z8 | 
[V:3]  [K:F] [K:clef=treble-8][M:2/1]G8 | 
[V:4]  [K:F] [K:clef=treble-8][M:2/1]z8 | 
[V:5]  [K:F] [K:clef=treble-8][M:2/1]B8 | 
[V:6]  [K:F] [K:clef=bass][M:2/1]z8 | 
[V:1] z8 | 
[V:2] z8 | 
[V:3] A4D4 | 
[V:4] z8 | 
[V:5] F8 | 
[V:6] z8 | 
[V:1] z8 | 
[V:2] z8 | 
[V:3] E6F2 | 
[V:4] z8 | 
[V:5] G8 | 
[V:6] z8 | 
[V:1] z8 | 
[V:2] G8 | 
[V:3] G8 | 
[V:4] B8 | 
[V:5] G4d4- | 
[V:6] G,,8 | 
[V:1] z8 | 
[V:2] A4A4 | 
[V:3] z8 | 
[V:4] F8 | 
[V:5] d2e2f2d2 | 
[V:6] D,4D,4 | 
[V:1] z8 | 
[V:2] c8 | 
[V:3] z8 | 
[V:4] G8 | 
[V:5] e8 | 
[V:6] C,6B,,2 | 
[V:1] d8 | 
[V:2] B8 | 
[V:3] G8 | 
[V:4] G4d4- | 
[V:5] d8 | 
[V:6] G,,4G,,4 | 
[V:1] A4A4 | 
[V:2] z8 | 
[V:3] F4F4 | 
[V:4] d2e2f2d2 | 
[V:5] z8 | 
[V:6] D,4D,4 | 
[V:1] c8 | 
[V:2] z8 | 
[V:3] G8 | 
[V:4] e8 | 
[V:5] z8 | 
[V:6] C,6B,,2 | 
[V:1] B4B4 | 
[V:2] z4d4 | 
[V:3] G4G4 | 
[V:4] d8 | 
[V:5] z4d4 | 
[V:6] G,,4G,,4 | 
[V:1] A4B4 | 
[V:2] d4d4 | 
[V:3] F4G4 | 
[V:4] z8 | 
[V:5] f4d4 | 
[V:6] D,4B,,4 | 
[V:1] G8 | 
[V:2] c8 | 
[V:3] E8 | 
[V:4] z8 | 
[V:5] e8 | 
[V:6] C,8 | 
[V:1] F4B4 | 
[V:2] A4d4 | 
[V:3] F4G4 | 
[V:4] z4d4 | 
[V:5] d8 | 
[V:6] D,4G,,4 | 
[V:1] A4B4 | 
[V:2] d4d4 | 
[V:3] F4G4 | 
[V:4] f4d4 | 
[V:5] z8 | 
[V:6] D,4B,,4 | 
[V:1] G8 | 
[V:2] c8 | 
[V:3] E8 | 
[V:4] e8 | 
[V:5] z8 | 
[V:6] C,8 | 
[V:1] F8 | 
[V:2] A4f4 | 
[V:3] F4D4 | 
[V:4] d8 | 
[V:5] z4d4 | 
[V:6] D,4B,,4 | 
[V:1] z8 | 
[V:2] e4d4 | 
[V:3] E4G4 | 
[V:4] z8 | 
[V:5] c4B4 | 
[V:6] C,4G,,4 | 
[V:1] z8 | 
[V:2] d8 | 
[V:3] F3EF4 | 
[V:4] z8 | 
[V:5] A8 | 
[V:6] D,8 | 
[V:1] z4D4 | 
[V:2] B4G4- | 
[V:3] G4B4 | 
[V:4] z4d4 | 
[V:5] G8 | 
[V:6] G,,4G,,4 | 
[V:1] E4G4 | 
[V:2] G2G2G4 | 
[V:3] c4d4 | 
[V:4] c4B4 | 
[V:5] z8 | 
[V:6] C,4G,,4 | 
[V:1] F3EF4 | 
[V:2] A4D4 | 
[V:3] d8 | 
[V:4] A8 | 
[V:5] z8 | 
[V:6] D,8 | 
[V:1] G4B4 | 
[V:2] z4z2G2 | 
[V:3] B8 | 
[V:4] G8 | 
[V:5] d8 | 
[V:6] G,,4G,,4 | 
[V:1] B2d3cB2- | 
[V:2] B3cd2e2 | 
[V:3] z8 | 
[V:4] z8 | 
[V:5] d4B4 | 
[V:6] G,4G,4 | 
[V:1] B2AGA4 | 
[V:2] f8 | 
[V:3] z8 | 
[V:4] z8 | 
[V:5] c8 | 
[V:6] F,8 | 
[V:1] B4B4 | 
[V:2] d8 | 
[V:3] z4B4 | 
[V:4] d8 | 
[V:5] B8 | 
[V:6] B,,4G,,4 | 
[V:1] B2d3cB2- | 
[V:2] z8 | 
[V:3] B3cd2e2 | 
[V:4] d4B4 | 
[V:5] z8 | 
[V:6] G,4G,4 | 
[V:1] B2AGA4 | 
[V:2] z8 | 
[V:3] f8 | 
[V:4] c8 | 
[V:5] z8 | 
[V:6] F,8 | 
[V:1] B8 | 
[V:2] z4B4 | 
[V:3] d4f4 | 
[V:4] B8 | 
[V:5] z4d4 | 
[V:6] B,,8 | 
[V:1] z8 | 
[V:2] A6G2 | 
[V:3] f3ef2e2- | 
[V:4] z8 | 
[V:5] c6B2 | 
[V:6] z8 | 
[V:1] z2F2G2E2 | 
[V:2] F3DE4 | 
[V:3] edd4^c2 | 
[V:4] z8 | 
[V:5] A4G4 | 
[V:6] z8 | 
[V:1] F3GA4 | 
[V:2] D8 | 
[V:3] d4z2D2 | 
[V:4] z4d4 | 
[V:5] A8 | 
[V:6] z4D,4 | 
[V:1] z8 | 
[V:2] z8 | 
[V:3] A4G2F2- | 
[V:4] c6B2 | 
[V:5] z8 | 
[V:6] F,4E,2D,2- | 
[V:1] z8 | 
[V:2] z8 | 
[V:3] FEC2D4 | 
[V:4] A4G4 | 
[V:5] z4d4 | 
[V:6] D,C,A,,2B,,4 | 
[V:1] z4F4 | 
[V:2] z8 | 
[V:3] E4z2D2 | 
[V:4] A8 | 
[V:5] c4A4 | 
[V:6] A,,4D,4 | 
[V:1] F2F2G4 | 
[V:2] z8 | 
[V:3] D2D2G4 | 
[V:4] z8 | 
[V:5] B8 | 
[V:6] B,,4G,,4 | 
[V:1] A8 | 
[V:2] z2D2F2D2 | 
[V:3] F4z4 | 
[V:4] z4d4 | 
[V:5] A8 | 
[V:6] D,8 | 
[V:1] z4F4 | 
[V:2] E4D4 | 
[V:3] z4z2D2 | 
[V:4] c4A4 | 
[V:5] z8 | 
[V:6] A,,4D,4 | 
[V:1] F2F2G4 | 
[V:2] z2d2d2d2 | 
[V:3] D2D2G4 | 
[V:4] B8 | 
[V:5] z8 | 
[V:6] B,,4G,,4 | 
[V:1] A2A2A2B2- | 
[V:2] d4d4 | 
[V:3] F4F4 | 
[V:4] A8 | 
[V:5] z8 | 
[V:6] D,8 | 
[V:1] BAGFG4 | 
[V:2] z8 | 
[V:3] G4B4- | 
[V:4] z8 | 
[V:5] d6d2 | 
[V:6] G,,8 | 
[V:1] F3DF2E2- | 
[V:2] z8 | 
[V:3] B4A4 | 
[V:4] z8 | 
[V:5] d4c4 | 
[V:6] z8 | 
[V:1] EDD4^C2 | 
[V:2] z4e4 | 
[V:3] G2F2E4 | 
[V:4] z8 | 
[V:5] B2A2G4 | 
[V:6] z4G,4 | 
[V:1] D4z4 | 
[V:2] f4f4 | 
[V:3] D8 | 
[V:4] d6d2 | 
[V:5] F8 | 
[V:6] A,4B,4- | 
[V:1] z8 | 
[V:2] d2f4e2- | 
[V:3] z8 | 
[V:4] d4c4 | 
[V:5] z8 | 
[V:6] B,4A,4 | 
[V:1] z8 | 
[V:2] edd4^c2 | 
[V:3] z8 | 
[V:4] B2A2G4 | 
[V:5] z8 | 
[V:6] G,2F,2E,4 | 
[V:1] z4F4 | 
[V:2] d8 | 
[V:3] z4D4 | 
[V:4] F8 | 
[V:5] z4d4 | 
[V:6] D,8 | 
[V:1] G2F2G4 | 
[V:2] z8 | 
[V:3] E2D2G4 | 
[V:4] z8 | 
[V:5] c2d2B4 | 
[V:6] z8 | 
[V:1] A4z4 | 
[V:2] d4c2d2 | 
[V:3] F2D2_E2D2 | 
[V:4] z8 | 
[V:5] A2F2G2F2 | 
[V:6] z8 | 
[V:1] z4F4 | 
[V:2] B3cd4 | 
[V:3] _E4D4 | 
[V:4] z4d4 | 
[V:5] G4A4 | 
[V:6] z4z2D,2 | 
[V:1] G2F2G4 | 
[V:2] z8 | 
[V:3] z8 | 
[V:4] c2d2B4 | 
[V:5] z8 | 
[V:6] E,2D,2G,4 | 
[V:1] A4z4 | 
[V:2] d4c2d2 | 
[V:3] z8 | 
[V:4] A2F2G2F2 | 
[V:5] z8 | 
[V:6] F,2D,2_E,2D,2 | 
[V:1] z4F4 | 
[V:2] B3cd4 | 
[V:3] z4z2D2 | 
[V:4] G4A4 | 
[V:5] z4d4 | 
[V:6] _E,4D,4 | 
[V:1] G2F2G4 | 
[V:2] z8 | 
[V:3] E2D2G4 | 
[V:4] z8 | 
[V:5] c2d2B4 | 
[V:6] z8 | 
[V:1] A4z4 | 
[V:2] d4c2d2 | 
[V:3] F2D2_E2D2 | 
[V:4] z8 | 
[V:5] A2F2G2F2 | 
[V:6] z8 | 
[V:1] z4F4 | 
[V:2] B3cd4 | 
[V:3] _E4D4 | 
[V:4] z4d4 | 
[V:5] G4A4 | 
[V:6] z4z2D,2 | 
[V:1] G2F2G4 | 
[V:2] z8 | 
[V:3] z8 | 
[V:4] c2d2B4 | 
[V:5] z8 | 
[V:6] E,2D,2G,4 | 
[V:1] A4z4 | 
[V:2] d4c2d2 | 
[V:3] z8 | 
[V:4] A2F2G2F2 | 
[V:5] z8 | 
[V:6] F,2D,2_E,2D,2 | 
[V:1] z8 | 
[V:2] B3cd4 | 
[V:3] z8 | 
[V:4] G4A4 | 
[V:5] z8 | 
[V:6] _E,4D,4 | 
[V:1] A4A2A2 | 
[V:2] z8 | 
[V:3] f4f2f2 | 
[V:4] z8 | 
[V:5] d4d2d2 | 
[V:6] z2D,2D,2D,2 | 
[V:1] B4A4 | 
[V:2] z8 | 
[V:3] f4f4 | 
[V:4] z8 | 
[V:5] d4c4 | 
[V:6] B,,4F,4 | 
[V:1] G2A2D2E2 | 
[V:2] z8 | 
[V:3] d3dd2c2 | 
[V:4] z8 | 
[V:5] B2A2B2G2 | 
[V:6] G,2F,2G,2E,2 | 
[V:1] F2A2A2A2 | 
[V:2] f4f2f2 | 
[V:3] d4z4 | 
[V:4] d4d2d2 | 
[V:5] A8 | 
[V:6] D,2D,2D,2D,2 | 
[V:1] B4A4 | 
[V:2] f4f4 | 
[V:3] z8 | 
[V:4] d4c4 | 
[V:5] z8 | 
[V:6] B,,4F,4 | 
[V:1] G2A2D2E2 | 
[V:2] d3dd2c2 | 
[V:3] z8 | 
[V:4] B2A2B2G2 | 
[V:5] z8 | 
[V:6] G,2F,2G,2E,2 | 
[V:1] F2A2A2A2 | 
[V:2] d4z4 | 
[V:3] f4f2f2 | 
[V:4] A8 | 
[V:5] d4d2d2 | 
[V:6] D,2D,2D,2D,2 | 
[V:1] B4A2c2 | 
[V:2] z8 | 
[V:3] f4f2f2 | 
[V:4] z8 | 
[V:5] d4c2A2 | 
[V:6] B,,4F,2F,2 | 
[V:1] B2G3^FFE | 
[V:2] z4d4 | 
[V:3] d2_e2d4 | 
[V:4] z8 | 
[V:5] B2c2A4 | 
[V:6] G,2C,2D,4 | 
[V:1] G2B2B2B2 | 
[V:2] d2d2g4 | 
[V:3] B8 | 
[V:4] d4d2d2 | 
[V:5] G8 | 
[V:6] G,,2G,2G,2G,2 | 
[V:1] B4A2c2 | 
[V:2] f4f4 | 
[V:3] z8 | 
[V:4] d4c2A2 | 
[V:5] z8 | 
[V:6] B,4F,2F,2 | 
[V:1] B2G4^F2 | 
[V:2] d2_e2d4 | 
[V:3] z8 | 
[V:4] B2c2A4 | 
[V:5] z8 | 
[V:6] G,2C,2D,4 | 
[V:1] G4z2G2 | 
[V:2] B2B2B2B2 | 
[V:3] z2d2d2d2 | 
[V:4] G8 | 
[V:5] z2G2G2G2 | 
[V:6] G,,2G,,2G,,2G,,2 | 
[V:1] G2G2B4 | 
[V:2] c4B2B2 | 
[V:3] _e4d2d2 | 
[V:4] z8 | 
[V:5] _E3FG2G2 | 
[V:6] C,4G,,2G,,2 | 
[V:1] G2G2G2G2 | 
[V:2] c2d2_e4 | 
[V:3] _e2d2c4 | 
[V:4] z8 | 
[V:5] G2G2_E3F | 
[V:6] C,2B,,2C,4 | 
[V:1] B3GG2G2 | 
[V:2] d2d2d2d2 | 
[V:3] B2B2B2B2 | 
[V:4] z2G2G2G2 | 
[V:5] G8- | 
[V:6] G,,2G,,2G,,2G,,2 | 
[V:1] G2G2B4 | 
[V:2] _e4d2d2 | 
[V:3] c4B2B2 | 
[V:4] _E3FG2G2 | 
[V:5] G8- | 
[V:6] C,4G,,2G,,2 | 
[V:1] G2G2G2G2 | 
[V:2] _e2d2c4 | 
[V:3] c2d2_e4 | 
[V:4] G2G2_E3F | 
[V:5] G8- | 
[V:6] C,2B,,2C,4 | 
[V:1] B6G2 | 
[V:2] B8- | 
[V:3] d8- | 
[V:4] G8- | 
[V:5] G8- | 
[V:6] G,,8- | 
[V:1] G8 |]  
[V:2] B8 |]  
[V:3] d8 |]  
[V:4] G8 |]  
[V:5] G8 |]  
[V:6] G,,8 |]  



